Pictures/search-icon-mobile.svg

<svg width="48" height="48" viewBox="0 0 48 48" fill="none" xmlns="http://www.w3.org/2000/svg">
<g id="Group 5 Copy 2">
<g id="Group 5 Copy">
<g id="Group">
<rect id="Rectangle" width="48" height="48" rx="5" fill="#5964E0"/>
<g id="003-search 2">
<g id="003-search">
<path id="Shape" fill-rule="evenodd" clip-rule="evenodd" d="M27.3533 26.549H28.2603L33.9529 32.2531L32.2531 33.9529L26.549 28.2603V27.359L26.2353 27.0453C24.9405 28.1576 23.2578 28.8307 21.4153 28.8307C17.3198 28.8307 14 25.5109 14 21.4153C14 17.3198 17.3198 14 21.4153 14C25.5109 14 28.8306 17.3198 28.8306 21.4153C28.8306 23.2578 28.1576 24.9405 27.0396 26.2353L27.3533 26.549ZM16.2817 21.4153C16.2817 24.2503 18.5804 26.549 21.4153 26.549C24.2503 26.549 26.549 24.2503 26.549 21.4153C26.549 18.5804 24.2503 16.2817 21.4153 16.2817C18.5804 16.2817 16.2817 18.5804 16.2817 21.4153Z" fill="white"/>
</g>
</g>
</g>
</g>
</g>
</svg>

<svg xmlns="http://www.w3.org/2000/svg" width="48" height="48" fill="none"><rect width="48" height="48" fill="#5964E0" rx="5"/><path fill="#fff" fill-rule="evenodd" d="M27.353 26.549h.907l5.693 5.704-1.7 1.7-5.704-5.693v-.901l-.314-.314a7.37 7.37 0 0 1-4.82 1.786 7.415 7.415 0 1 1 7.416-7.416 7.345 7.345 0 0 1-1.791 4.82l.313.314Zm-11.071-5.134a5.134 5.134 0 1 0 10.268 0 5.134 5.134 0 0 0-10.268 0Z" clip-rule="evenodd"/></svg>
